frontend/src/assets/apply/application-deadline.svg

<svg width="136" height="136" viewBox="0 0 136 136" fill="none" xmlns="http://www.w3.org/2000/svg">
<g filter="url(#filter0_d)">
<rect x="4" y="4" width="128" height="128" rx="15" fill="white"/>
</g>
<path d="M4 19C4 10.7157 10.7157 4 19 4H117C125.284 4 132 10.7157 132 19V40H4V19Z" fill="#F44343"/>
<path d="M50.2537 29L51.3333 25.6832H56.5819L57.6614 29H60.9569L55.9426 14.4545H51.9796L46.9583 29H50.2537ZM52.1145 23.2827L53.9043 17.7784H54.0179L55.8077 23.2827H52.1145ZM62.7076 29H65.7828V24.2841H68.3681C71.7132 24.2841 73.6593 22.2884 73.6593 19.3835C73.6593 16.4929 71.7488 14.4545 68.4462 14.4545H62.7076V29ZM65.7828 21.8196V16.9688H67.8567C69.6323 16.9688 70.4917 17.9347 70.4917 19.3835C70.4917 20.8253 69.6323 21.8196 67.8709 21.8196H65.7828ZM75.6568 29H78.7321V23.8438H80.9764L83.7321 29H87.127L84.0375 23.3466C85.6923 22.6364 86.6085 21.1946 86.6085 19.206C86.6085 16.3153 84.698 14.4545 81.3954 14.4545H75.6568V29ZM78.7321 21.3722V16.9688H80.8059C82.5815 16.9688 83.4409 17.7571 83.4409 19.206C83.4409 20.6477 82.5815 21.3722 80.8201 21.3722H78.7321Z" fill="white"/>
<path d="M61.189 98.344C63.749 98.344 65.029 99.432 65.029 101.608C65.029 103.869 63.749 105 61.189 105H39.557C36.9543 105 35.653 103.869 35.653 101.608C35.653 99.432 36.9543 98.344 39.557 98.344H46.213V69.16L40.069 72.936C39.4717 73.2773 38.9383 73.448 38.469 73.448C37.573 73.448 36.805 73.064 36.165 72.296C35.5677 71.528 35.269 70.6747 35.269 69.736C35.269 68.4987 35.8237 67.5387 36.933 66.856L46.853 60.712C48.133 59.944 49.349 59.56 50.501 59.56C51.6957 59.56 52.6557 59.9227 53.381 60.648C54.1063 61.3733 54.469 62.376 54.469 63.656V98.344H61.189ZM89.452 76.072C92.14 76.072 94.5293 76.6907 96.62 77.928C98.7107 79.1227 100.332 80.8293 101.484 83.048C102.679 85.224 103.276 87.72 103.276 90.536C103.276 93.4373 102.615 96.04 101.292 98.344C100.012 100.605 98.22 102.376 95.916 103.656C93.6547 104.936 91.0733 105.576 88.172 105.576C82.4547 105.576 78.0387 103.656 74.924 99.816C71.852 95.9333 70.316 90.408 70.316 83.24C70.316 78.3333 71.0413 74.088 72.492 70.504C73.9427 66.8773 76.012 64.104 78.7 62.184C81.4307 60.264 84.6307 59.304 88.3 59.304C90.732 59.304 93.164 59.752 95.596 60.648C98.0707 61.5013 100.161 62.6747 101.868 64.168C102.423 64.6373 102.807 65.1067 103.02 65.576C103.276 66.0027 103.404 66.536 103.404 67.176C103.404 68.1147 103.127 68.9253 102.572 69.608C102.06 70.248 101.441 70.568 100.716 70.568C100.289 70.568 99.884 70.504 99.5 70.376C99.116 70.2053 98.6467 69.9493 98.092 69.608C94.5507 67.1333 91.3933 65.896 88.62 65.896C85.5053 65.896 83.052 67.3467 81.26 70.248C79.468 73.1067 78.5293 77.1387 78.444 82.344C79.4253 80.424 80.8973 78.9093 82.86 77.8C84.8227 76.648 87.02 76.072 89.452 76.072ZM87.724 99.048C90.0707 99.048 91.948 98.3013 93.356 96.808C94.764 95.272 95.468 93.2667 95.468 90.792C95.468 88.3173 94.764 86.3333 93.356 84.84C91.948 83.3467 90.0707 82.6 87.724 82.6C85.3347 82.6 83.3933 83.368 81.9 84.904C80.4493 86.3973 79.724 88.36 79.724 90.792C79.724 93.2667 80.4493 95.272 81.9 96.808C83.3933 98.3013 85.3347 99.048 87.724 99.048Z" fill="black"/>
<defs>
<filter id="filter0_d" x="0" y="0" width="136" height="136" filterUnits="userSpaceOnUse" color-interpolation-filters="sRGB">
<feFlood flood-opacity="0" result="BackgroundImageFix"/>
<feColorMatrix in="SourceAlpha" type="matrix" values="0 0 0 0 0 0 0 0 0 0 0 0 0 0 0 0 0 0 127 0"/>
<feOffset/>
<feGaussianBlur stdDeviation="2"/>
<feColorMatrix type="matrix" values="0 0 0 0 0 0 0 0 0 0 0 0 0 0 0 0 0 0 0.25 0"/>
<feBlend mode="normal" in2="BackgroundImageFix" result="effect1_dropShadow"/>
<feBlend mode="normal" in="SourceGraphic" in2="effect1_dropShadow" result="shape"/>
</filter>
</defs>
</svg>

<svg width="136" height="136" fill="none" xmlns="http://www.w3.org/2000/svg"><g filter="url(#a)"><rect x="4" y="4" width="128" height="128" rx="15" fill="#fff"/></g><path d="M4 19c0-8.284 6.716-15 15-15h98c8.284 0 15 6.716 15 15v21H4V19z" fill="#F44343"/><path d="m50.254 29 1.08-3.317h5.248L57.662 29h3.295l-5.014-14.546H51.98L46.958 29h3.296zm1.86-5.717 1.79-5.505h.114l1.79 5.505h-3.694zM62.709 29h3.075v-4.716h2.585c3.345 0 5.291-1.996 5.291-4.9 0-2.891-1.91-4.93-5.213-4.93h-5.738V29zm3.075-7.18v-4.851h2.074c1.775 0 2.635.966 2.635 2.415 0 1.441-.86 2.436-2.621 2.436h-2.088zM75.657 29h3.075v-5.156h2.244L83.732 29h3.395l-3.09-5.653c1.655-.71 2.572-2.152 2.572-4.141 0-2.89-1.911-4.752-5.214-4.752h-5.738V29zm3.075-7.628V16.97h2.074c1.776 0 2.635.788 2.635 2.237 0 1.442-.86 2.166-2.62 2.166h-2.089z" fill="#fff"/><path d="M61.189 98.344c2.56 0 3.84 1.088 3.84 3.264 0 2.261-1.28 3.392-3.84 3.392H39.557c-2.603 0-3.904-1.131-3.904-3.392 0-2.176 1.301-3.264 3.904-3.264h6.656V69.16l-6.144 3.776c-.597.341-1.13.512-1.6.512-.896 0-1.664-.384-2.304-1.152-.597-.768-.896-1.621-.896-2.56 0-1.237.555-2.197 1.664-2.88l9.92-6.144c1.28-.768 2.496-1.152 3.648-1.152 1.195 0 2.155.363 2.88 1.088.725.725 1.088 1.728 1.088 3.008v34.688h6.72zm28.263-22.272c2.688 0 5.077.619 7.168 1.856 2.09 1.195 3.712 2.901 4.864 5.12 1.195 2.176 1.792 4.672 1.792 7.488 0 2.901-.661 5.504-1.984 7.808-1.28 2.261-3.072 4.032-5.376 5.312-2.261 1.28-4.843 1.92-7.744 1.92-5.717 0-10.133-1.92-13.248-5.76-3.072-3.883-4.608-9.408-4.608-16.576 0-4.907.725-9.152 2.176-12.736 1.45-3.627 3.52-6.4 6.208-8.32 2.73-1.92 5.93-2.88 9.6-2.88 2.432 0 4.864.448 7.296 1.344 2.475.853 4.565 2.027 6.272 3.52.555.47.939.939 1.152 1.408.256.427.384.96.384 1.6 0 .939-.277 1.75-.832 2.432-.512.64-1.131.96-1.856.96-.427 0-.832-.064-1.216-.192a12.47 12.47 0 0 1-1.408-.768c-3.541-2.475-6.699-3.712-9.472-3.712-3.115 0-5.568 1.45-7.36 4.352-1.792 2.859-2.73 6.89-2.816 12.096.981-1.92 2.453-3.435 4.416-4.544 1.963-1.152 4.16-1.728 6.592-1.728zm-1.728 22.976c2.347 0 4.224-.747 5.632-2.24 1.408-1.536 2.112-3.541 2.112-6.016s-.704-4.459-2.112-5.952c-1.408-1.493-3.285-2.24-5.632-2.24-2.39 0-4.33.768-5.824 2.304-1.45 1.493-2.176 3.456-2.176 5.888 0 2.475.725 4.48 2.176 6.016 1.493 1.493 3.435 2.24 5.824 2.24z" fill="#000"/><defs><filter id="a" x="0" y="0" width="136" height="136" filterUnits="userSpaceOnUse" color-interpolation-filters="sRGB"><feFlood flood-opacity="0" result="BackgroundImageFix"/><feColorMatrix in="SourceAlpha" values="0 0 0 0 0 0 0 0 0 0 0 0 0 0 0 0 0 0 127 0"/><feOffset/><feGaussianBlur stdDeviation="2"/><feColorMatrix values="0 0 0 0 0 0 0 0 0 0 0 0 0 0 0 0 0 0 0.25 0"/><feBlend in2="BackgroundImageFix" result="effect1_dropShadow"/><feBlend in="SourceGraphic" in2="effect1_dropShadow" result="shape"/></filter></defs></svg>
